illustrations/assets/Mic permissions/il_axis_mil_permissions_dark.svg

<svg xmlns="http://www.w3.org/2000/svg" width="230" height="160" fill="none" viewBox="0 0 230 160">
  <path fill="#242424" d="M114.636 144.8c34.267 0 62.048-27.801 62.048-62.2153s-27.903-62.2152-62.048-62.2152c-34.267 0-62.0479 27.8009-62.0479 62.2152 0 34.4143 27.7809 62.2153 62.0479 62.2153Z"/>
  <path fill="#5C5C5C" d="M172.645 41.802c2.771 0 5.018-2.2481 5.018-5.0213s-2.247-5.0213-5.018-5.0213-5.017 2.2481-5.017 5.0213 2.246 5.0213 5.017 5.0213ZM179.989 22.2068c1.892 0 3.426-1.5353 3.426-3.4292 0-1.8939-1.534-3.4292-3.426-3.4292-1.893 0-3.427 1.5353-3.427 3.4292 0 1.8939 1.534 3.4292 3.427 3.4292ZM55.8924 41.6797c1.8925 0 3.4267-1.5353 3.4267-3.4292 0-1.8939-1.5342-3.4292-3.4267-3.4292-1.8926 0-3.4268 1.5353-3.4268 3.4292 0 1.8939 1.5342 3.4292 3.4268 3.4292ZM34.9647 107.814c3.5147 0 6.3639-2.852 6.3639-6.369 0-3.5172-2.8492-6.3685-6.3639-6.3685s-6.3639 2.8513-6.3639 6.3685c0 3.517 2.8492 6.369 6.3639 6.369Z"/>
  <mask id="mask0_3831_4848" width="125" height="137" x="52" y="8" maskUnits="userSpaceOnUse" style="mask-type:alpha">
    <path fill="#5C5C5C" d="M168.393 8H63.0685v40.2513c-6.5013 9.834-10.2874 21.6334-10.2874 34.3335 0 34.4142 27.8008 62.2152 62.0929 62.2152 34.292 0 62.092-27.801 62.092-62.2152 0-11.5196-3.128-22.2981-8.573-31.5411V8Z"/>
  </mask>
  <g mask="url(#mask0_3831_4848)">
    <path fill="url(#paint0_linear_3831_4848)" d="M67.3767 147.616 66.2745 18.2759c0-3.0334 2.4801-5.3773 5.5113-5.3773h86.5272c3.031 0 5.511 2.4818 5.511 5.3773V142.239c0 3.033-2.48 5.377-5.511 5.377H67.3767Z"/>
  </g>
  <ellipse cx="114.774" cy="82.3245" fill="#3A3A3A" rx="38.778" ry="46.3181"/>
  <path fill="#3A3A3A" d="M153.552 82.3245c0 25.5805-17.361 46.3185-38.778 46.3185-21.4164 0-38.7779-20.738-38.7779-46.3185 0-25.5808 17.3615-46.3182 38.7779-46.3182 21.417 0 38.778 20.7374 38.778 46.3182Z"/>
  <path fill="#F5F2EC" d="M109.486 113.268c0-.973.789-1.762 1.763-1.762h6.445c.973 0 1.763.789 1.763 1.762v.962c0 .973-.79 1.762-1.763 1.762h-6.445c-.974 0-1.763-.789-1.763-1.762v-.962Z"/>
  <path fill="#F5F2EC" d="M114.952 113.749c.974 0 1.763.789 1.763 1.762v11.929c0 .974-.789 1.763-1.763 1.763h-.961c-.974 0-1.763-.789-1.763-1.763v-11.929c0-.973.789-1.762 1.763-1.762h.961ZM140.332 94.761c-.486 0-.881-.3946-.881-.8813v-6.1692c0-.4868.395-.8814.881-.8814 1.947 0 3.526 1.5783 3.526 3.5253v.8813c0 1.947-1.579 3.5253-3.526 3.5253ZM89.2159 86.8287a.8814.8814 0 0 1 .8813.8814v6.1692a.8813.8813 0 0 1-.8813.8813c-1.947 0-3.5253-1.5783-3.5253-3.5253v-.8813c0-1.9469 1.5783-3.5253 3.5253-3.5253Z"/>
  <path fill="#F5F2EC" fill-rule="evenodd" d="M94.5038 86.3882c.9735 0 1.7626.7891 1.7626 1.7626v3.0846c0 10.2216 8.2866 18.5076 18.5076 18.5076 10.222 0 18.508-8.286 18.508-18.5076v-3.0846c0-.9735.789-1.7626 1.762-1.7626.974 0 1.763.7891 1.763 1.7626v3.0846c0 12.1686-9.864 22.0326-22.033 22.0326-12.168 0-22.0329-9.864-22.0329-22.0326v-3.0846c0-.9735.7892-1.7626 1.7627-1.7626Z" clip-rule="evenodd"/>
  <path fill="#F5F2EC" fill-rule="evenodd" d="M98.9105 74.4904c0-8.7613 7.1025-15.8637 15.8635-15.8637 8.762 0 15.864 7.1024 15.864 15.8637v16.745c0 8.7613-7.102 15.8636-15.864 15.8636-8.761 0-15.8635-7.1023-15.8635-15.8636v-16.745ZM114.774 62.152c-6.814 0-12.338 5.5241-12.338 12.3384v16.745c0 6.8144 5.524 12.3386 12.338 12.3386 6.815 0 12.339-5.5242 12.339-12.3386v-16.745c0-6.8143-5.524-12.3384-12.339-12.3384Z" clip-rule="evenodd"/>
  <path fill="#F5F2EC" d="M98.9105 86.8287h31.7275v4.4066c0 8.7613-7.102 15.8637-15.864 15.8637"/>
  <path fill="#F5F2EC" fill-rule="evenodd" d="M111.249 81.5411c0 .9735-.789 1.7626-1.763 1.7626h-8.813v-3.5253h8.813c.974 0 1.763.7892 1.763 1.7627ZM111.249 74.4903c0 .9735-.789 1.7626-1.763 1.7626h-8.813v-3.5252h8.813c.974 0 1.763.7891 1.763 1.7626ZM118.299 74.4903c0-.9735.79-1.7626 1.763-1.7626h8.813v3.5252h-8.813c-.973 0-1.763-.7891-1.763-1.7626ZM118.299 81.5411c0-.9735.79-1.7627 1.763-1.7627h8.813v3.5253h-8.813c-.973 0-1.763-.7891-1.763-1.7626Z" clip-rule="evenodd"/>
  <defs>
    <linearGradient id="paint0_linear_3831_4848" x1="115.081" x2="115.081" y1="150.733" y2="11.4462" gradientUnits="userSpaceOnUse">
      <stop stop-color="#5C5C5C"/>
      <stop offset=".9964" stop-color="#4D4D4D"/>
    </linearGradient>
  </defs>
</svg>

<svg width="230" height="160" viewBox="0 0 230 160" fill="none" xmlns="http://www.w3.org/2000/svg">
<path d="M114.636 144.8C148.903 144.8 176.684 116.999 176.684 82.5848C176.684 48.1705 148.781 20.3696 114.636 20.3696C80.369 20.3696 52.5881 48.1705 52.5881 82.5848C52.5881 116.999 80.369 144.8 114.636 144.8Z" fill="#242424"/>
<path d="M172.645 41.8021C175.416 41.8021 177.663 39.554 177.663 36.7808C177.663 34.0076 175.416 31.7595 172.645 31.7595C169.874 31.7595 167.628 34.0076 167.628 36.7808C167.628 39.554 169.874 41.8021 172.645 41.8021Z" fill="#5C5C5C"/>
<path d="M179.989 22.2068C181.881 22.2068 183.415 20.6715 183.415 18.7776C183.415 16.8837 181.881 15.3484 179.989 15.3484C178.096 15.3484 176.562 16.8837 176.562 18.7776C176.562 20.6715 178.096 22.2068 179.989 22.2068Z" fill="#5C5C5C"/>
<path d="M55.8924 41.6797C57.7849 41.6797 59.3191 40.1444 59.3191 38.2505C59.3191 36.3566 57.7849 34.8213 55.8924 34.8213C53.9998 34.8213 52.4656 36.3566 52.4656 38.2505C52.4656 40.1444 53.9998 41.6797 55.8924 41.6797Z" fill="#5C5C5C"/>
<path d="M34.9647 107.814C38.4794 107.814 41.3286 104.962 41.3286 101.445C41.3286 97.9279 38.4794 95.0767 34.9647 95.0767C31.45 95.0767 28.6008 97.9279 28.6008 101.445C28.6008 104.962 31.45 107.814 34.9647 107.814Z" fill="#5C5C5C"/>
<mask id="mask0_3831_4848" style="mask-type:alpha" maskUnits="userSpaceOnUse" x="52" y="8" width="125" height="137">
<path d="M168.393 8H63.0685V48.2513C56.5672 58.0853 52.7811 69.8847 52.7811 82.5848C52.7811 116.999 80.5819 144.8 114.874 144.8C149.166 144.8 176.966 116.999 176.966 82.5848C176.966 71.0652 173.838 60.2867 168.393 51.0437V8Z" fill="#5C5C5C"/>
</mask>
<g mask="url(#mask0_3831_4848)">
<path d="M67.3767 147.616L66.2745 18.2759C66.2745 15.2425 68.7546 12.8986 71.7858 12.8986L158.313 12.8986C161.344 12.8986 163.824 15.3804 163.824 18.2759L163.824 142.239C163.824 145.272 161.344 147.616 158.313 147.616L95.622 147.616L67.3767 147.616Z" fill="url(#paint0_linear_3831_4848)"/>
</g>
<ellipse cx="114.774" cy="82.3245" rx="38.778" ry="46.3181" fill="#3A3A3A"/>
<path d="M153.552 82.3245C153.552 107.905 136.191 128.643 114.774 128.643C93.3576 128.643 75.9961 107.905 75.9961 82.3245C75.9961 56.7437 93.3576 36.0063 114.774 36.0063C136.191 36.0063 153.552 56.7437 153.552 82.3245Z" fill="#3A3A3A"/>
<path d="M109.486 113.268C109.486 112.295 110.275 111.506 111.249 111.506H117.694C118.667 111.506 119.457 112.295 119.457 113.268V114.23C119.457 115.203 118.667 115.992 117.694 115.992H111.249C110.275 115.992 109.486 115.203 109.486 114.23V113.268Z" fill="#F5F2EC"/>
<path d="M114.952 113.749C115.926 113.749 116.715 114.538 116.715 115.511L116.715 127.44C116.715 128.414 115.926 129.203 114.952 129.203L113.991 129.203C113.017 129.203 112.228 128.414 112.228 127.44L112.228 115.511C112.228 114.538 113.017 113.749 113.991 113.749L114.952 113.749Z" fill="#F5F2EC"/>
<path d="M140.332 94.761C139.846 94.761 139.451 94.3664 139.451 93.8797L139.451 87.7105C139.451 87.2237 139.846 86.8291 140.332 86.8291C142.279 86.8291 143.858 88.4074 143.858 90.3544L143.858 91.2357C143.858 93.1827 142.279 94.761 140.332 94.761Z" fill="#F5F2EC"/>
<path d="M89.2159 86.8286C89.7026 86.8286 90.0972 87.2232 90.0972 87.7099L90.0972 93.8791C90.0972 94.3659 89.7026 94.7605 89.2159 94.7605C87.2689 94.7605 85.6906 93.1821 85.6906 91.2352L85.6906 90.3539C85.6906 88.4069 87.2689 86.8286 89.2159 86.8286Z" fill="#F5F2EC"/>
<path fill-rule="evenodd" clip-rule="evenodd" d="M94.5038 86.3882C95.4773 86.3882 96.2664 87.1773 96.2664 88.1508V91.2354C96.2664 101.457 104.553 109.743 114.774 109.743C124.996 109.743 133.282 101.457 133.282 91.2354V88.1508C133.282 87.1773 134.071 86.3882 135.044 86.3882C136.018 86.3882 136.807 87.1773 136.807 88.1508V91.2354C136.807 103.404 126.943 113.268 114.774 113.268C102.606 113.268 92.7411 103.404 92.7411 91.2354V88.1508C92.7411 87.1773 93.5303 86.3882 94.5038 86.3882Z" fill="#F5F2EC"/>
<path fill-rule="evenodd" clip-rule="evenodd" d="M98.9105 74.4904C98.9105 65.7291 106.013 58.6267 114.774 58.6267C123.536 58.6267 130.638 65.7291 130.638 74.4904V91.2354C130.638 99.9967 123.536 107.099 114.774 107.099C106.013 107.099 98.9105 99.9967 98.9105 91.2354V74.4904ZM114.774 62.152C107.96 62.152 102.436 67.6761 102.436 74.4904V91.2354C102.436 98.0498 107.96 103.574 114.774 103.574C121.589 103.574 127.113 98.0498 127.113 91.2354V74.4904C127.113 67.6761 121.589 62.152 114.774 62.152Z" fill="#F5F2EC"/>
<path d="M98.9105 86.8286H130.638V91.2352C130.638 99.9965 123.536 107.099 114.774 107.099Lnan nanL114.774 107.099C106.013 107.099 98.9105 99.9965 98.9105 91.2352L98.9105 86.8286Z" fill="#F5F2EC"/>
<path fill-rule="evenodd" clip-rule="evenodd" d="M111.249 81.5411C111.249 82.5146 110.46 83.3037 109.486 83.3037L100.673 83.3037L100.673 79.7784L109.486 79.7784C110.46 79.7784 111.249 80.5676 111.249 81.5411Z" fill="#F5F2EC"/>
<path fill-rule="evenodd" clip-rule="evenodd" d="M111.249 74.4903C111.249 75.4638 110.46 76.2529 109.486 76.2529L100.673 76.2529L100.673 72.7277L109.486 72.7277C110.46 72.7277 111.249 73.5168 111.249 74.4903Z" fill="#F5F2EC"/>
<path fill-rule="evenodd" clip-rule="evenodd" d="M118.299 74.4904C118.299 73.5169 119.089 72.7278 120.062 72.7278L128.875 72.7278L128.875 76.2531L120.062 76.2531C119.089 76.2531 118.299 75.4639 118.299 74.4904Z" fill="#F5F2EC"/>
<path fill-rule="evenodd" clip-rule="evenodd" d="M118.299 81.5412C118.299 80.5677 119.089 79.7786 120.062 79.7786L128.875 79.7786L128.875 83.3038L120.062 83.3038C119.089 83.3038 118.299 82.5147 118.299 81.5412Z" fill="#F5F2EC"/>
<defs>
<linearGradient id="paint0_linear_3831_4848" x1="115.081" y1="150.733" x2="115.081" y2="11.4462" gradientUnits="userSpaceOnUse">
<stop stop-color="#5C5C5C"/>
<stop offset="0.9964" stop-color="#4D4D4D"/>
</linearGradient>
</defs>
</svg>
